images/change__icon.svg

<svg width="22" height="22" viewBox="0 0 22 22" fill="none" xmlns="http://www.w3.org/2000/svg">
<path d="M1.60695 21.5C1.67257 21.5 1.73819 21.4934 1.80381 21.4836L7.32232 20.5156C7.38794 20.5025 7.45028 20.473 7.49621 20.4237L21.4041 6.51453C21.4345 6.48417 21.4586 6.44812 21.4751 6.40842C21.4915 6.36873 21.5 6.32618 21.5 6.2832C21.5 6.24023 21.4915 6.19768 21.4751 6.15798C21.4586 6.11829 21.4345 6.08223 21.4041 6.05188L15.9512 0.595156C15.8888 0.532813 15.8068 0.5 15.7182 0.5C15.6296 0.5 15.5476 0.532813 15.4853 0.595156L1.57742 14.5044C1.52821 14.5536 1.49868 14.6127 1.48556 14.6783L0.517686 20.1973C0.485769 20.3731 0.497173 20.554 0.550912 20.7244C0.60465 20.8948 0.699103 21.0495 0.826093 21.1752C1.04263 21.3852 1.31495 21.5 1.60695 21.5ZM2.75 15.5L15.7182 2.375L19.625 6.2832L6.5 18.875L2.375 19.625L2.75 15.5Z" fill="url(#paint0_linear)"/>
<defs>
<linearGradient id="paint0_linear" x1="0.5" y1="0.5" x2="22.0154" y2="1.04209" gradientUnits="userSpaceOnUse">
<stop stop-color="#9DC2F3"/>
<stop offset="1" stop-color="#91DCF4"/>
</linearGradient>
</defs>
</svg>

<svg width="22" height="22" fill="none" xmlns="http://www.w3.org/2000/svg"><path d="M1.6 21.5c.07 0 .14 0 .2-.02l5.52-.96a.32.32 0 00.18-.1l13.9-13.9a.33.33 0 000-.47L15.95.6a.32.32 0 00-.23-.1.32.32 0 00-.23.1L1.58 14.5a.33.33 0 00-.1.18L.53 20.2a1.1 1.1 0 00.3.98c.22.2.5.32.79.32zm1.15-6L15.72 2.37l3.9 3.91L6.5 18.88l-4.13.75.38-4.13z" fill="url(#paint0_linear)"/><defs><linearGradient id="paint0_linear" x1=".5" y1=".5" x2="22.02" y2="1.04" gradientUnits="userSpaceOnUse"><stop stop-color="#9DC2F3"/><stop offset="1" stop-color="#91DCF4"/></linearGradient></defs></svg>
